!!!OTL: 329. Rheinweinlied.
!!!COM: Joh. André
!!!ODT: 1776
!!!ARE: Europa, Mitteleuropa, Deutschland
!!!SCT: B0329
!!!TXL: @@DE
!!!YEM: Copyright 1995, estate of Helmut Schaffrath.
**kern	**text
*ICvox	*
*Ivox	*
*clefG2	*
!! Mixed meters:  2/4; 3/4
*M2/4	*
*k[b-e-]	*
*B-:	*
!LO:TX:a:t=Mäßig.	!
{8f	Bekränʒt
=1	=1
4b-	.
4b-	mit
=2	=2
4.b-}	Laub
{8g	den
=3	=3
8f	lie-
8d	-ben
8g	vol-
8f	-len
=4	=4
8fL	Be-
8e-J	.
8d}	-cher
{8b-	und
=5	=5
8dd	trinkt
8b-	ihn
8ff	fröh-
8dd	-lich
=6	=6
!LO:TX:a:t=*	!
4.cc}	leer
{8b-	und
=7	=7
*M3/4	*
8a	trinkt
8f	ihn
4cc	fröh-
4cc	-lich
=8	=8
*M2/4	*
4f	leer!
8r}	.
{8f	Jn
=9	=9
4g	ganʒ
4a	Eu-
=10	=10
!LO:TX:a:t=**	!
4.b-}	-ro-
{8cc	-pi-
=11	=11
8dd	-a,
8b-	ihr
8ee-	Her-
8dd	-ren
=12	=12
8dd	Ʒe-
8cc	-cher,
8r}	.
{8ff'	iſt
=13	=13
8ee-'	ſolch
8dd'	ein
8cc'	Wein
8b-'	nicht
=14	=14
8a'	mehr,
8g'	iſt
8f'}	ſolch
{8b-	ein
=15	=15
4cc	Wein
4a	nicht
=16	=16
4b-	mehr.
8r}	.
==	==
!!!AGN: Trink - Lied
!!!GTL: Wein- und Trinklieder
!!!ONB: ESAC (Essen Associative Code) Database: BOEHME
!!!AMT: irregular
!!!AIN: vox
!!!EED: Helmut Schaffrath
!!!EEV: 1.0
!!Joh. Andre 1776. Hier die Volksweiſe mit Ang. des Originals.
!!@@COMMENT:"*Damit iſt auf die Volksſage vom Herentanʒ auf dem Brocken in der Walpurgisnacht an-
!!geſpielt: "Kuckuck und ſein Küſter" bedeutet der Teufel und ſeine Untergebenen. Schwerlich iſt an
!!die Thierſage ʒu denken, nach welcher der Wiedehopf des Kuckucks Küſter war.
!!Text von Matthias Claudius 1775. Ʒuerſt im Voſſ. Muſenalmanach 1776 S. 147, unter-
!!ʒeichnet "Claudius". Die beliebte, noch jetʒt ʒu Tafelliedern benutʒte Melodie iſt von Johann
!!Andre. Ʒuerſt in: "Muſikal. Blumenſtrauß". Offenbach am Mayn, bey Joh. Andre, für das
!!Jahr 1776 von Joh. Andre. Fol. S. 2. Neuausgabe 1790. Originalausgabe in Odur.
!!Die Melodie wird ʒuweilen auch mit dem Anſange der 8. Strophe angeführt: "Am Rhein,
!!am Rhein, da wachſen" et."
!!@@END:
!!!Text: M. Claudius
!!!URL-scan: https://archive.org/details/BoehmeVtLieder1895/page/n275/mode/2up
!!!ENC: Anna Maria Matuszewska
!!!EEV: 2024/04/07
*-	*-
